X: 366
T: Bir Fındığın İçini...
C: (Anonim)
O: Turkey
F: http://compmusic.upf.edu/node/140
N: segah--turku--raksaksagi--bir_findigin--
N: makam= segah
N: form= turku
N: usul= raksaksagi = 9/8
M: 9/8
L: 1/16
K: C _1/4B _1/4e ^f 
Q: 1/4=216
%%MIDI tuningsystem comma53
z4 d2=e4e4e4 | =e8d2 e4 d4  | z4 d2=e4e4e4 | \
w:  Bir  fın dı ğın   |  i *  çi ni    |  Bir  fın dı ğın   | 
=e8d2 e4 d4  | z4 g2f2 g2=e4d2 c2 | 
w:  i *  çi ni    |  Yâr  sen *  den  ay  | 
d4B4d2 c4 B2z2  | z4 d2d4d4d4 | d4B4d2 c4 B2z2  | \
w:  rı  *  *  ye mem    |  Yâr  sen den  ay  |  rı  *  *  ye mem    | 
z4 d2=e4e4e4 | 
w:  Bu gün  gör düm   | 
=e8d2 e4 d4  | z4 d2=e4e4e4 | =e8d2 e4 d4  | \
w:  yâ *  ri mi    |  Bu gün  gör düm   |  yâ *  ri mi    | 
z4 g2f2 g2=e4d2 c2 | d4B4d2 c4 B2z2  | 
w:  Öl dü *  ğü me   |  gam  *  *  ye mem    | 
z4 d2d4d4d4 | d4B4d2 c4 B2z2  | z4 g4 =e2e2 d2d4 | \
w:  Öl dü ğü me   |  gam  *  *  ye mem    |  Al dır_ as *  la  | 
d4B4d2 c4 B4  | 
w:  nım  *  *  al dır    | 
z4 d4 d2d4d4 | d4B4d2 c4 B2z2  | z4 d2d4d4d4 | \
w:  Al ya nak la  |  rın  *  *  bal dır    |  Kı na lı  el  | 
d4B4d2 c4 B2z2  | 
w:  le *  *  rin le    | 
z4 d2d4d4d4 | d4B4d2 c4 B2z2  | z4 d2=e4e4e4 | \
w:  Be ni  uy ku  |  dan  *  *  kal dır    |  Bir  fın dı ğın   | 
=e8d2 e4 d4  | z4 d2=e4e4e4 | 
w:  i *  çi ni    |  Bir  fın dı ğın   | 
=e8d2 e4 d4  | z4 g2f2 g2=e4d2 c2 | d4B4d2 c4 B2z2  | \
w:  i *  çi ni    |  Yâr  sen *  den  ay  |  rı  *  *  ye mem    | 
z4 d2d4d4d4 | 
w:  Yâr  sen den  ay  | 
d4B4d2 c4 B2z2  | z4 d2=e4e4e4 | =e8d2 e4 d4  | \
w:  rı  *  *  ye mem    |  Bu gün  gör düm   |  yâ *  ri mi    | 
z4 d2=e4e4e4 | =e8d2 e4 d4  | 
w:  Bu gün  gör düm   |  yâ *  ri mi    | 
z4 g2f2 g2=e4d2 c2 | d4B4d2 c4 B2z2  | \
w:  Öl dü *  ğü me   |  gam  *  *  ye mem    | 
z4 d2d4d4d4 | d4B4d2 c4 B2z2  | 
w:  Öl dü ğü me   |  gam  *  *  ye mem    | 
z4 g4 =e2e2 d2d4 | d4B4d2 c4 B4  | z4 d4 d2d4d4 | \
w:  Al dır_ as *  la  |  nım  *  *  al dır    |  Al ya nak la  | 
d4B4d2 c4 B2z2  | 
w:  rın  *  *  bal dır    | 
z4 d2d4d4d4 | d4B4d2 c4 B2z2  | z4 d2d4d4d4 | \
w:  Kı na lı  el  |  le *  *  rin le    |  Be ni  uy ku  | 
d4B4d2 c4 B2z2  | 
w:  dan  *  *  kal dır    | 
|


